poi/svg/1703.svg

<?xml version="1.0" encoding="UTF-8" standalone="no"?>
<svg
   xmlns:dc="http://purl.org/dc/elements/1.1/"
   xmlns:cc="http://creativecommons.org/ns#"
   xmlns:rdf="http://www.w3.org/1999/02/22-rdf-syntax-ns#"
   xmlns:svg="http://www.w3.org/2000/svg"
   xmlns="http://www.w3.org/2000/svg"
   xmlns:sodipodi="http://sodipodi.sourceforge.net/DTD/sodipodi-0.dtd"
   xmlns:inkscape="http://www.inkscape.org/namespaces/inkscape"
   inkscape:version="1.0 (4035a4fb49, 2020-05-01)"
   sodipodi:docname="1703.svg"
   id="svg20"
   version="1.2"
   viewBox="0 0 42.519639 42.519639"
   height="14.999999mm"
   width="14.999999mm">
  <metadata
     id="metadata24">
    <rdf:RDF>
      <cc:Work
         rdf:about="">
        <dc:format>image/svg+xml</dc:format>
        <dc:type
           rdf:resource="http://purl.org/dc/dcmitype/StillImage" />
        <dc:title>Qt SVG Document</dc:title>
      </cc:Work>
    </rdf:RDF>
  </metadata>
  <sodipodi:namedview
     inkscape:current-layer="svg20"
     inkscape:window-maximized="0"
     inkscape:window-y="0"
     inkscape:window-x="0"
     inkscape:cy="28.346482"
     inkscape:cx="28.346482"
     inkscape:zoom="5.8410537"
     showgrid="false"
     id="namedview22"
     inkscape:window-height="480"
     inkscape:window-width="1034"
     inkscape:pageshadow="2"
     inkscape:pageopacity="0"
     guidetolerance="10"
     gridtolerance="10"
     objecttolerance="10"
     borderopacity="1"
     bordercolor="#666666"
     pagecolor="#ffffff" />
  <title
     id="title2">Qt SVG Document</title>
  <desc
     id="desc4">Generated with Qt</desc>
  <defs
     id="defs6" />
  <g
     transform="translate(5.25984,5.25984)"
     id="g18"
     stroke-linejoin="bevel"
     stroke-linecap="square"
     fill-rule="evenodd"
     stroke-width="1"
     stroke="#000000"
     fill="none">
    <g
       id="g10"
       font-style="normal"
       font-weight="400"
       font-size="7.8px"
       font-family="'MS Shell Dlg 2'"
       stroke="none"
       fill-opacity="1"
       fill="#66b1e3">
      <path
         id="path8"
         d="M 37.2598,16 C 37.2598,27.7415 27.7415,37.2598 16,37.2598 4.25851,37.2598 -5.25984,27.7415 -5.25984,16 -5.25984,4.25851 4.25851,-5.25984 16,-5.25984 27.7415,-5.25984 37.2598,4.25851 37.2598,16"
         fill-rule="evenodd"
         vector-effect="non-scaling-stroke" />
    </g>
    <g
       id="g14"
       font-style="normal"
       font-weight="400"
       font-size="7.8px"
       font-family="'MS Shell Dlg 2'"
       transform="translate(16,13.1654)"
       stroke="none"
       fill-opacity="0.94902"
       fill="#ffffff">
      <path
         id="path12"
         d="m -8.30225,-0.719238 c 0.75586,0.377929 1.79867,0.6613767 3.12842,0.850342 1.32975,0.188964 2.7015,0.283447 4.11524,0.283447 1.455725,0 2.84147,-0.094483 4.15722,-0.283447 1.31576,-0.1889653 2.35157,-0.472413 3.10742,-0.850342 L 3.53955,16.7915 c 0,0.112 -0.12948,0.2205 -0.38843,0.3254 -0.25895,0.105 -0.60538,0.1995 -1.0393,0.2835 -0.43392,0.084 -0.92033,0.147 -1.459232,0.189 -0.5389,0.0419 -1.109294,0.0629 -1.711178,0.0629 -0.5739,0 -1.13379,-0.021 -1.67969,-0.0629 -0.5459,-0.042 -1.03581,-0.105 -1.46973,-0.189 -0.43392,-0.084 -0.78035,-0.1785 -1.0393,-0.2835 -0.25896,-0.1049 -0.38843,-0.2134 -0.38843,-0.3254 L -8.30225,-0.719238 M 0.516113,4.31982 c -0.391927,-0.34993 -0.790853,-0.34993 -1.196777,0 -0.111979,0.11198 -0.237956,0.16797 -0.377926,0.16797 -0.15398,0 -0.28695,-0.05599 -0.39893,-0.16797 -0.40592,-0.34993 -0.80485,-0.34993 -1.19678,0 -0.23795,0.22396 -0.4969,0.22396 -0.77685,0 -0.16797,-0.16796 -0.37093,-0.25195 -0.60889,-0.25195 -0.19596,0 -0.39193,0.08399 -0.58789,0.25195 -0.26595,0.25196 -0.5249,0.25196 -0.77686,0 -0.40592,-0.34993 -0.81184,-0.34993 -1.21777,0 l 1.55371,11.69478 0.98682,0.399 c 0.32194,0.112 0.73136,0.2029 1.22827,0.2729 0.49691,0.07 1.0953,0.105 1.79517,0.105 0.685869,0 1.277259,-0.035 1.774166,-0.105 0.496904,-0.07 0.906334,-0.1609 1.228274,-0.2729 L 2.93066,16.0146 4.48438,4.31982 c -0.37793,-0.37793 -0.78386,-0.37793 -1.21778,0 -0.22396,0.22396 -0.47591,0.22396 -0.75586,0 C 2.32878,4.15186 2.12581,4.06787 1.90186,4.06787 c -0.19597,0 -0.39893,0.08399 -0.60889,0.25195 -0.25195,0.25196 -0.510906,0.25196 -0.776857,0 M -1.05859,14.293 c -0.64388,0 -1.18628,-0.2205 -1.6272,-0.6614 -0.44092,-0.4409 -0.66138,-0.9903 -0.66138,-1.6482 0,-0.3219 0.11548,-0.8119 0.34644,-1.4697 C -2.76978,9.85579 -2.51432,9.19792 -2.23438,8.54004 -1.94043,7.82617 -1.5485,6.99333 -1.05859,6.0415 L 0.0961914,8.54004 C 0.376139,9.19792 0.63859,9.85579 0.883545,10.5137 1.1285,11.1715 1.25098,11.6615 1.25098,11.9834 c 0,0.6579 -0.22046,1.2073 -0.66138,1.6482 -0.440918,0.4409 -0.990316,0.6614 -1.64819,0.6614 M 2.84668,-2.94482 c 1.0638,0.11197 1.91764,0.26945 2.56152,0.47241 0.64388,0.20296 0.96582,0.41642 0.96582,0.64038 v 0.08398 l -0.04199,0.042 c -0.16797,0.26595 -0.88533,0.56339 -2.1521,0.892329 -1.26676,0.328939 -3.01294,0.493408 -5.23852,0.493408 -2.23959,0 -3.98226,-0.164469 -5.22803,-0.493408 C -7.53239,-1.14266 -8.26025,-1.4401 -8.47021,-1.70605 v -0.042 -0.08398 c 0,-0.27995 0.44791,-0.5249 1.34375,-0.73486 -0.08399,-0.16797 -0.12598,-0.34994 -0.12598,-0.5459 0,-0.46192 0.15747,-0.84335 0.47241,-1.14429 0.31494,-0.30094 0.68237,-0.45142 1.1023,-0.45142 0.46191,0 0.84334,0.15048 1.14428,0.45142 0.30095,0.30094 0.45142,0.68237 0.45142,1.14429 v 0.08398 c 0.48991,-0.02799 0.97982,-0.04899 1.46973,-0.06299 0.4899,-0.01399 1.00781,-0.02099 1.55371,-0.02099 H 0.390137 C 0.628092,-3.6307 1.03402,-3.88965 1.60791,-3.88965 c 0.30794,0 0.57039,0.09448 0.78735,0.28345 0.21696,0.18896 0.36744,0.40942 0.45142,0.66138 m -4.55615,-0.52491 c -0.48991,0 -0.89934,-0.16447 -1.22827,-0.4934 -0.32894,-0.32894 -0.49341,-0.73837 -0.49341,-1.22828 0,-0.47591 0.16447,-0.88883 0.49341,-1.23877 0.32893,-0.34993 0.73836,-0.5249 1.22827,-0.5249 0.25195,0 0.48291,0.06299 0.69287,0.18897 0,-0.028 -0.007,-0.05599 -0.021,-0.08399 -0.014,-0.02799 -0.02099,-0.06299 -0.02099,-0.10498 0,-0.36393 0.181962,-0.5459 0.545895,-0.5459 0.377929,0 0.5668942,0.18197 0.5668942,0.5459 0,0.37793 -0.1749672,0.5669 -0.5249022,0.5669 0.32194,0.32194 0.48291,0.72086 0.48291,1.19677 0,0.48991 -0.164469,0.89934 -0.493408,1.22828 -0.328939,0.32893 -0.738359,0.4934 -1.228269,0.4934 M 2.88867,-4.6665 c -0.29394,0 -0.5389,-0.10149 -0.73486,-0.30445 -0.19596,-0.20296 -0.29395,-0.44441 -0.29395,-0.72436 0,-0.32194 0.09799,-0.5739 0.29395,-0.75586 0.19596,-0.18197 0.44092,-0.27295 0.73486,-0.27295 0.71387,0 1.0708,0.34294 1.0708,1.02881 0,0.27995 -0.10148,0.5214 -0.30444,0.72436 -0.20296,0.20296 -0.45842,0.30445 -0.76636,0.30445 m 2.91846,-1.59571 c 0.37793,0 0.56689,0.18897 0.56689,0.5669 0,0.36393 -0.18896,0.5459 -0.56689,0.5459 -0.36393,0 -0.5459,-0.18197 -0.5459,-0.5459 0,-0.37793 0.18197,-0.5669 0.5459,-0.5669 m 1.84766,-2.30957 c 0.23795,0 0.44091,0.07699 0.60888,0.23096 0.16797,0.15397 0.25196,0.34993 0.25196,0.58789 0,0.22396 -0.08399,0.41292 -0.25196,0.56689 -0.16797,0.15398 -0.37093,0.23096 -0.60888,0.23096 -0.5459,0 -0.81885,-0.26595 -0.81885,-0.79785 0,-0.5459 0.27295,-0.81885 0.81885,-0.81885"
         fill-rule="evenodd"
         vector-effect="none" />
    </g>
    <g
       id="g16"
       font-style="normal"
       font-weight="400"
       font-size="7.8px"
       font-family="'MS Shell Dlg 2'"
       stroke="none"
       fill-opacity="1"
       fill="#66b1e3" />
  </g>
</svg>

<?xml version="1.0" encoding="UTF-8" standalone="no"?>
<svg width="11.2889mm" height="11.2889mm"
 viewBox="0 0 32 32"
 xmlns="http://www.w3.org/2000/svg" xmlns:xlink="http://www.w3.org/1999/xlink"  version="1.2" baseProfile="tiny">
<title>Qt SVG Document</title>
<desc>Generated with Qt</desc>
<defs>
</defs>
<g fill="none" stroke="black" stroke-width="1" fill-rule="evenodd" stroke-linecap="square" stroke-linejoin="bevel" >

<g fill="#66b1e3" fill-opacity="1" stroke="none" transform="matrix(1,0,0,1,0,0)"
font-family="MS Shell Dlg 2" font-size="7.8" font-weight="400" font-style="normal" 
>
<path vector-effect="non-scaling-stroke" fill-rule="evenodd" d="M37.2598,16 C37.2598,27.7415 27.7415,37.2598 16,37.2598 C4.25851,37.2598 -5.25984,27.7415 -5.25984,16 C-5.25984,4.25851 4.25851,-5.25984 16,-5.25984 C27.7415,-5.25984 37.2598,4.25851 37.2598,16 "/>
</g>

<g fill="#ffffff" fill-opacity="0.94902" stroke="none" transform="matrix(1,0,0,1,16,13.1654)"
font-family="MS Shell Dlg 2" font-size="7.8" font-weight="400" font-style="normal" 
>
<path vector-effect="none" fill-rule="evenodd" d="M-8.30225,-0.719238 C-7.54639,-0.341309 -6.50358,-0.0578613 -5.17383,0.131104 C-3.84408,0.320068 -2.47233,0.414551 -1.05859,0.414551 C0.397135,0.414551 1.78288,0.320068 3.09863,0.131104 C4.41439,-0.0578613 5.4502,-0.341309 6.20605,-0.719238 L3.53955,16.7915 C3.53955,16.9035 3.41007,17.012 3.15112,17.1169 C2.89217,17.2219 2.54574,17.3164 2.11182,17.4004 C1.6779,17.4844 1.19149,17.5474 0.652588,17.5894 C0.113688,17.6313 -0.456706,17.6523 -1.05859,17.6523 C-1.63249,17.6523 -2.19238,17.6313 -2.73828,17.5894 C-3.28418,17.5474 -3.77409,17.4844 -4.20801,17.4004 C-4.64193,17.3164 -4.98836,17.2219 -5.24731,17.1169 C-5.50627,17.012 -5.63574,16.9035 -5.63574,16.7915 L-8.30225,-0.719238 M0.516113,4.31982 C0.124186,3.96989 -0.27474,3.96989 -0.680664,4.31982 C-0.792643,4.4318 -0.91862,4.48779 -1.05859,4.48779 C-1.21257,4.48779 -1.34554,4.4318 -1.45752,4.31982 C-1.86344,3.96989 -2.26237,3.96989 -2.6543,4.31982 C-2.89225,4.54378 -3.1512,4.54378 -3.43115,4.31982 C-3.59912,4.15186 -3.80208,4.06787 -4.04004,4.06787 C-4.236,4.06787 -4.43197,4.15186 -4.62793,4.31982 C-4.89388,4.57178 -5.15283,4.57178 -5.40479,4.31982 C-5.81071,3.96989 -6.21663,3.96989 -6.62256,4.31982 L-5.06885,16.0146 L-4.08203,16.4136 C-3.76009,16.5256 -3.35067,16.6165 -2.85376,16.6865 C-2.35685,16.7565 -1.75846,16.7915 -1.05859,16.7915 C-0.372721,16.7915 0.218669,16.7565 0.715576,16.6865 C1.21248,16.6165 1.62191,16.5256 1.94385,16.4136 L2.93066,16.0146 L4.48438,4.31982 C4.10645,3.94189 3.70052,3.94189 3.2666,4.31982 C3.04264,4.54378 2.79069,4.54378 2.51074,4.31982 C2.32878,4.15186 2.12581,4.06787 1.90186,4.06787 C1.70589,4.06787 1.50293,4.15186 1.29297,4.31982 C1.04102,4.57178 0.782064,4.57178 0.516113,4.31982 M-1.05859,14.293 C-1.70247,14.293 -2.24487,14.0725 -2.68579,13.6316 C-3.12671,13.1907 -3.34717,12.6413 -3.34717,11.9834 C-3.34717,11.6615 -3.23169,11.1715 -3.00073,10.5137 C-2.76978,9.85579 -2.51432,9.19792 -2.23438,8.54004 C-1.94043,7.82617 -1.5485,6.99333 -1.05859,6.0415 L0.0961914,8.54004 C0.376139,9.19792 0.63859,9.85579 0.883545,10.5137 C1.1285,11.1715 1.25098,11.6615 1.25098,11.9834 C1.25098,12.6413 1.03052,13.1907 0.5896,13.6316 C0.148682,14.0725 -0.400716,14.293 -1.05859,14.293 M2.84668,-2.94482 C3.91048,-2.83285 4.76432,-2.67537 5.4082,-2.47241 C6.05208,-2.26945 6.37402,-2.05599 6.37402,-1.83203 L6.37402,-1.74805 L6.33203,-1.70605 C6.16406,-1.4401 5.4467,-1.14266 4.17993,-0.813721 C2.91317,-0.484782 1.16699,-0.320313 -1.05859,-0.320313 C-3.29818,-0.320313 -5.04085,-0.484782 -6.28662,-0.813721 C-7.53239,-1.14266 -8.26025,-1.4401 -8.47021,-1.70605 L-8.47021,-1.74805 L-8.47021,-1.83203 C-8.47021,-2.11198 -8.0223,-2.35693 -7.12646,-2.56689 C-7.21045,-2.73486 -7.25244,-2.91683 -7.25244,-3.11279 C-7.25244,-3.57471 -7.09497,-3.95614 -6.78003,-4.25708 C-6.46509,-4.55802 -6.09766,-4.7085 -5.67773,-4.7085 C-5.21582,-4.7085 -4.83439,-4.55802 -4.53345,-4.25708 C-4.2325,-3.95614 -4.08203,-3.57471 -4.08203,-3.11279 L-4.08203,-3.02881 C-3.59212,-3.0568 -3.10221,-3.0778 -2.6123,-3.0918 C-2.1224,-3.10579 -1.60449,-3.11279 -1.05859,-3.11279 L0.390137,-3.11279 C0.628092,-3.6307 1.03402,-3.88965 1.60791,-3.88965 C1.91585,-3.88965 2.1783,-3.79517 2.39526,-3.6062 C2.61222,-3.41724 2.7627,-3.19678 2.84668,-2.94482 M-1.70947,-3.46973 C-2.19938,-3.46973 -2.60881,-3.6342 -2.93774,-3.96313 C-3.26668,-4.29207 -3.43115,-4.7015 -3.43115,-5.19141 C-3.43115,-5.66732 -3.26668,-6.08024 -2.93774,-6.43018 C-2.60881,-6.78011 -2.19938,-6.95508 -1.70947,-6.95508 C-1.45752,-6.95508 -1.22656,-6.89209 -1.0166,-6.76611 C-1.0166,-6.79411 -1.0236,-6.8221 -1.0376,-6.8501 C-1.0516,-6.87809 -1.05859,-6.91309 -1.05859,-6.95508 C-1.05859,-7.31901 -0.876628,-7.50098 -0.512695,-7.50098 C-0.134766,-7.50098 0.0541992,-7.31901 0.0541992,-6.95508 C0.0541992,-6.57715 -0.120768,-6.38818 -0.470703,-6.38818 C-0.148763,-6.06624 0.012207,-5.66732 0.012207,-5.19141 C0.012207,-4.7015 -0.152262,-4.29207 -0.481201,-3.96313 C-0.81014,-3.6342 -1.21956,-3.46973 -1.70947,-3.46973 M2.88867,-4.6665 C2.59473,-4.6665 2.34977,-4.76799 2.15381,-4.97095 C1.95785,-5.17391 1.85986,-5.41536 1.85986,-5.69531 C1.85986,-6.01725 1.95785,-6.26921 2.15381,-6.45117 C2.34977,-6.63314 2.59473,-6.72412 2.88867,-6.72412 C3.60254,-6.72412 3.95947,-6.38118 3.95947,-5.69531 C3.95947,-5.41536 3.85799,-5.17391 3.65503,-4.97095 C3.45207,-4.76799 3.19661,-4.6665 2.88867,-4.6665 M5.80713,-6.26221 C6.18506,-6.26221 6.37402,-6.07324 6.37402,-5.69531 C6.37402,-5.33138 6.18506,-5.14941 5.80713,-5.14941 C5.4432,-5.14941 5.26123,-5.33138 5.26123,-5.69531 C5.26123,-6.07324 5.4432,-6.26221 5.80713,-6.26221 M7.65479,-8.57178 C7.89274,-8.57178 8.0957,-8.49479 8.26367,-8.34082 C8.43164,-8.18685 8.51563,-7.99089 8.51563,-7.75293 C8.51563,-7.52897 8.43164,-7.34001 8.26367,-7.18604 C8.0957,-7.03206 7.89274,-6.95508 7.65479,-6.95508 C7.10889,-6.95508 6.83594,-7.22103 6.83594,-7.75293 C6.83594,-8.29883 7.10889,-8.57178 7.65479,-8.57178 "/>
</g>

<g fill="#66b1e3" fill-opacity="1" stroke="none" transform="matrix(1,0,0,1,0,0)"
font-family="MS Shell Dlg 2" font-size="7.8" font-weight="400" font-style="normal" 
>
</g>
</g>
</svg>
